X:262
T:Quick March (Mahogany Shoals)
S:Bruce & Emmett's Drummers and Fifers Guide (1862), p. 26
M:6/8
L:1/8
K:A
%%MIDI program 72
%%MIDI transpose 8
%%MIDI ratio 3 1
E|:(c3 B)AB|ABA Ace|f>ga edc|dBB B2E|(c3 B)AB|
ABA Ace|f>ga eac|[1 B>AB A2E:|[2 B>AB A2z|:cde eee|ef=g f^ga|
e>dc cBA|G>AB B2d|cde eee|ef=g f^ga|f>^ga eac|B>AB A3:||
